img/advantages__icon--04.svg

<svg width="73" height="73" viewBox="0 0 73 73" fill="none" xmlns="http://www.w3.org/2000/svg">
<g filter="url(#filter0_d)">
<path d="M52.4796 16.9148C48.1949 12.6251 42.4982 10.2627 36.4388 10.2627C30.3795 10.2627 24.6828 12.6251 20.3981 16.9148C16.1135 21.2046 13.7539 26.908 13.7539 32.9746C13.7539 39.0411 16.1135 44.7445 20.3981 49.0343C24.6828 53.324 30.3795 55.6864 36.4388 55.6864C42.4982 55.6864 48.1949 53.324 52.4796 49.0343C56.7642 44.7445 59.1238 39.0411 59.1238 32.9746C59.1238 26.908 56.7642 21.2046 52.4796 16.9148ZM36.4388 53.8768C24.927 53.8768 15.5614 44.5001 15.5614 32.9746C15.5614 21.449 24.927 12.0724 36.4388 12.0724C47.9506 12.0724 57.3162 21.4491 57.3162 32.9746C57.3162 44.5 47.9506 53.8768 36.4388 53.8768Z" fill="url(#paint0_linear)"/>
<path d="M36.439 13.8289C25.8948 13.8289 17.3164 22.4174 17.3164 32.9742C17.3164 43.5309 25.8948 52.1195 36.439 52.1195C46.9832 52.1195 55.5616 43.5309 55.5616 32.9742C55.5616 22.4174 46.9832 13.8289 36.439 13.8289ZM51.8639 40.8455L49.2576 39.3389C48.8254 39.0892 48.2727 39.2373 48.023 39.6701C47.7734 40.1028 47.9216 40.6563 48.3538 40.9061L50.9569 42.4108C49.6335 44.4445 47.8959 46.1842 45.8646 47.5091L44.3617 44.9029C44.1121 44.4701 43.5593 44.3218 43.1272 44.5718C42.6949 44.8216 42.5467 45.375 42.7964 45.8078L44.3012 48.4172C42.1935 49.497 39.8372 50.157 37.3429 50.286V47.2707C37.3429 46.7709 36.9383 46.3658 36.4392 46.3658C35.94 46.3658 35.5354 46.7709 35.5354 47.2707V50.286C33.0411 50.157 30.6849 49.497 28.5772 48.4172L30.082 45.8078C30.3316 45.375 30.1835 44.8216 29.7512 44.5718C29.319 44.322 28.7662 44.4702 28.5166 44.9029L27.0138 47.5091C24.9823 46.1841 23.2448 44.4445 21.9214 42.4108L24.5245 40.9061C24.9568 40.6563 25.105 40.1028 24.8553 39.6701C24.6058 39.2373 24.0529 39.089 23.6208 39.3389L21.0141 40.8455C19.9355 38.7353 19.2763 36.3762 19.1475 33.879H22.1593C22.6584 33.879 23.063 33.4739 23.063 32.9742C23.063 32.4744 22.6584 32.0693 22.1593 32.0693H19.1475C19.2763 29.5721 19.9355 27.2131 21.0141 25.1028L23.6204 26.6094C23.7627 26.6917 23.9182 26.7308 24.0715 26.7308C24.3838 26.7308 24.6876 26.5685 24.855 26.2782C25.1046 25.8455 24.9564 25.292 24.5242 25.0422L21.9211 23.5376C23.2445 21.5037 24.9821 19.7641 27.0134 18.4392L28.5163 21.0454C28.6837 21.3357 28.9874 21.4979 29.2998 21.4979C29.4531 21.4979 29.6085 21.4588 29.7508 21.3766C30.1831 21.1267 30.3313 20.5733 30.0816 20.1405L28.577 17.531C30.6846 16.4511 33.041 15.7911 35.5352 15.6621V18.6775C35.5352 19.1772 35.9398 19.5823 36.439 19.5823C36.9382 19.5823 37.3428 19.1772 37.3428 18.6775V15.6621C39.837 15.7911 42.1933 16.4511 44.301 17.531L42.7962 20.1404C42.5466 20.5731 42.6947 21.1266 43.127 21.3764C43.2693 21.4586 43.4247 21.4977 43.578 21.4977C43.8904 21.4977 44.1942 21.3355 44.3615 21.0452L45.8644 18.439C47.8959 19.764 49.6334 21.5036 50.9567 23.5374L48.3536 25.042C47.9214 25.2919 47.7732 25.8453 48.0229 26.2781C48.1902 26.5683 48.494 26.7306 48.8064 26.7306C48.9597 26.7306 49.1151 26.6915 49.2574 26.6092L51.8637 25.1026C52.9423 27.2128 53.6015 29.5719 53.7303 32.0691H50.7185C50.2194 32.0691 49.8148 32.4742 49.8148 32.974C49.8148 33.4737 50.2194 33.8788 50.7185 33.8788H53.7303C53.6017 36.3762 52.9426 38.7353 51.8639 40.8455Z" fill="url(#paint1_linear)"/>
<path d="M37.3412 30.4554V24.65C37.3412 24.1502 36.9366 23.7451 36.4375 23.7451C35.9383 23.7451 35.5337 24.1502 35.5337 24.65V30.4554C34.5029 30.8272 33.7638 31.816 33.7638 32.9747C33.7638 33.6328 34.0027 34.2358 34.3976 34.7024L32.9631 37.1901C32.7134 37.6229 32.8616 38.1763 33.2938 38.4261C33.4362 38.5085 33.5916 38.5475 33.7449 38.5475C34.0572 38.5475 34.361 38.3852 34.5284 38.0949L35.9622 35.6084C36.1166 35.6363 36.2752 35.6516 36.4375 35.6516C37.9118 35.6516 39.1112 34.4508 39.1112 32.9747C39.1112 31.8161 38.3721 30.8273 37.3412 30.4554ZM36.4375 33.8419C35.9599 33.8419 35.5713 33.4528 35.5713 32.9747C35.5713 32.4965 35.9599 32.1074 36.4375 32.1074C36.9151 32.1074 37.3037 32.4965 37.3037 32.9747C37.3037 33.4528 36.9151 33.8419 36.4375 33.8419Z" fill="url(#paint2_linear)"/>
<path d="M36.437 20.7593C35.9378 20.7593 35.5332 21.1644 35.5332 21.6641V22.0261C35.5332 22.5258 35.9378 22.9309 36.437 22.9309C36.9361 22.9309 37.3407 22.5258 37.3407 22.0261V21.6641C37.3407 21.1644 36.9361 20.7593 36.437 20.7593Z" fill="url(#paint3_linear)"/>
</g>
<defs>
<filter id="filter0_d" x="0.513018" y="0.804918" width="71.8516" height="71.9055" filterUnits="userSpaceOnUse" color-interpolation-filters="sRGB">
<feFlood flood-opacity="0" result="BackgroundImageFix"/>
<feColorMatrix in="SourceAlpha" type="matrix" values="0 0 0 0 0 0 0 0 0 0 0 0 0 0 0 0 0 0 127 0"/>
<feOffset dy="3.78311"/>
<feGaussianBlur stdDeviation="6.62044"/>
<feColorMatrix type="matrix" values="0 0 0 0 0.996078 0 0 0 0 0.823529 0 0 0 0 0.188235 0 0 0 0.4 0"/>
<feBlend mode="normal" in2="BackgroundImageFix" result="effect1_dropShadow"/>
<feBlend mode="normal" in="SourceGraphic" in2="effect1_dropShadow" result="shape"/>
</filter>
<linearGradient id="paint0_linear" x1="59.1238" y1="1.02397" x2="1.72688" y2="35.884" gradientUnits="userSpaceOnUse">
<stop stop-color="#FED230"/>
<stop offset="1" stop-color="#FE8730"/>
</linearGradient>
<linearGradient id="paint1_linear" x1="55.5616" y1="6.04094" x2="7.17805" y2="35.4267" gradientUnits="userSpaceOnUse">
<stop stop-color="#FED230"/>
<stop offset="1" stop-color="#FE8730"/>
</linearGradient>
<linearGradient id="paint2_linear" x1="39.1112" y1="20.7345" x2="28.9295" y2="23.3567" gradientUnits="userSpaceOnUse">
<stop stop-color="#FED230"/>
<stop offset="1" stop-color="#FE8730"/>
</linearGradient>
<linearGradient id="paint3_linear" x1="37.3407" y1="20.3176" x2="34.8489" y2="21.5788" gradientUnits="userSpaceOnUse">
<stop stop-color="#FED230"/>
<stop offset="1" stop-color="#FE8730"/>
</linearGradient>
</defs>
</svg>

<svg width="73" height="73" fill="none" xmlns="http://www.w3.org/2000/svg"><g filter="url(#filter0_d)"><path d="M52.48 16.915a22.524 22.524 0 00-16.041-6.652 22.518 22.518 0 00-16.04 6.652 22.577 22.577 0 00-6.645 16.06c0 6.066 2.36 11.77 6.644 16.06 4.285 4.289 9.982 6.651 16.04 6.651 6.06 0 11.757-2.362 16.042-6.652a22.577 22.577 0 006.644-16.06c0-6.066-2.36-11.77-6.644-16.06zM36.439 53.877c-11.512 0-20.878-9.377-20.878-20.902 0-11.526 9.366-20.903 20.878-20.903s20.877 9.377 20.877 20.903c0 11.525-9.365 20.902-20.877 20.902z" fill="url(#paint0_linear)"/><path d="M36.439 13.829c-10.544 0-19.123 8.588-19.123 19.145S25.895 52.12 36.44 52.12s19.123-8.59 19.123-19.146c0-10.557-8.579-19.145-19.123-19.145zm15.425 27.017l-2.606-1.507a.903.903 0 10-.904 1.567l2.603 1.505a17.466 17.466 0 01-5.092 5.098l-1.503-2.606a.903.903 0 10-1.566.905l1.505 2.61a17.177 17.177 0 01-6.958 1.868v-3.015a.904.904 0 10-1.808 0v3.015a17.176 17.176 0 01-6.958-1.869l1.505-2.61a.905.905 0 00-1.565-.904l-1.503 2.606a17.465 17.465 0 01-5.093-5.098l2.604-1.505a.905.905 0 00-.904-1.567l-2.607 1.507a17.227 17.227 0 01-1.866-6.967h3.011a.904.904 0 000-1.81h-3.011a17.227 17.227 0 011.866-6.966l2.606 1.506a.903.903 0 001.235-.331.905.905 0 00-.33-1.236l-2.604-1.504a17.463 17.463 0 015.092-5.099l1.503 2.606a.903.903 0 101.566-.905l-1.505-2.609a17.175 17.175 0 016.958-1.869v3.015a.904.904 0 101.808 0v-3.015c2.494.13 4.85.79 6.958 1.869l-1.505 2.61a.905.905 0 00.782 1.357.903.903 0 00.783-.453l1.503-2.606a17.462 17.462 0 015.093 5.098l-2.603 1.505a.905.905 0 00.903 1.567l2.607-1.506a17.227 17.227 0 011.866 6.966h-3.01a.904.904 0 000 1.81h3.011a17.222 17.222 0 01-1.866 6.967z" fill="url(#paint1_linear)"/><path d="M37.341 30.455V24.65a.904.904 0 10-1.807 0v5.805a2.681 2.681 0 00-1.77 2.52c0 .658.239 1.26.634 1.727l-1.435 2.488a.905.905 0 00.782 1.358.903.903 0 00.783-.453l1.434-2.487a2.678 2.678 0 001.379-5.153zm-.904 3.387a.868.868 0 010-1.735.868.868 0 010 1.735z" fill="url(#paint2_linear)"/><path d="M36.437 20.76c-.5 0-.904.404-.904.904v.362a.904.904 0 101.808 0v-.362c0-.5-.405-.905-.904-.905z" fill="url(#paint3_linear)"/></g><defs><linearGradient id="paint0_linear" x1="59.124" y1="1.024" x2="1.727" y2="35.884" gradientUnits="userSpaceOnUse"><stop stop-color="#FED230"/><stop offset="1" stop-color="#FE8730"/></linearGradient><linearGradient id="paint1_linear" x1="55.562" y1="6.041" x2="7.178" y2="35.427" gradientUnits="userSpaceOnUse"><stop stop-color="#FED230"/><stop offset="1" stop-color="#FE8730"/></linearGradient><linearGradient id="paint2_linear" x1="39.111" y1="20.735" x2="28.93" y2="23.357" gradientUnits="userSpaceOnUse"><stop stop-color="#FED230"/><stop offset="1" stop-color="#FE8730"/></linearGradient><linearGradient id="paint3_linear" x1="37.341" y1="20.318" x2="34.849" y2="21.579" gradientUnits="userSpaceOnUse"><stop stop-color="#FED230"/><stop offset="1" stop-color="#FE8730"/></linearGradient><filter id="filter0_d" x=".513" y=".805" width="71.852" height="71.906" filterUnits="userSpaceOnUse" color-interpolation-filters="sRGB"><feFlood flood-opacity="0" result="BackgroundImageFix"/><feColorMatrix in="SourceAlpha" values="0 0 0 0 0 0 0 0 0 0 0 0 0 0 0 0 0 0 127 0"/><feOffset dy="3.783"/><feGaussianBlur stdDeviation="6.62"/><feColorMatrix values="0 0 0 0 0.996078 0 0 0 0 0.823529 0 0 0 0 0.188235 0 0 0 0.4 0"/><feBlend in2="BackgroundImageFix" result="effect1_dropShadow"/><feBlend in="SourceGraphic" in2="effect1_dropShadow" result="shape"/></filter></defs></svg>
